X:1
T:Fæderne byggde
T:Federne byggde
T:Oddmund Vik
T:Karl Svensen
C:Karl Svensen
%%score [ 1 2 3 4 ]
L:1/8
Q:1/4=80
M:2/4
K:Eb
V:1 treble nm="Soprano"
V:2 treble nm="Alto"
V:3 treble-8 nm="Tenor"
V:4 bass nm="Bass"
V:1
 C2 E3/2 F/ | G2 G2 | E2 G3/2 A/ | B2 B2 | G2 B3/2 c/ | d2 G3/2 B/ | =A2 B3/2 A/ | G2 z2 | %8
w: 1.Fe- der- ne|bygg- de;|sø- ner- ne|trygg- de|hei- men, som|o- del til|æt- ter- ne|gav.|
 _A2 G3/2 F/ | c2 B2 | e2 d3/2 c/ | =B2 c2 | _B2 F3/2 A/ | G2 D3/2 F/ | E2 D3/2 D/ | G2 z2 | %16
w: Gud kvelv- de|luf- ti|blaa y- ver|tuf- ti|lyf- te vaar|hejm- hug og|stun- ding mot|hav,|
 c2 B3/2 A/ | G2 c3/2 e/ | d2 e3/2 d/ | c2 z2 |] %20
w: lyf- te vaar|hejm- hug og|stun- ding mot|hav.|
V:2
 C2 E3/2 F/ | G2 G2 | E2 G3/2 A/ | B2 B2 | G2 G3/2 G/ | ^F2 G3/2 G/ | G2 ^F3/2 F/ | D2 z2 | %8
w: 1.Fe- der- ne|bygg- de;|sø- ner- ne|trygg- de|hei- men, som|o- del til|æt- ter- ne|gav.|
 D2 D3/2 D/ | E2 F2 | E2 A3/2 G/ | F2 G2 | F2 F3/2 F/ | E2 D3/2 =B,/ | C2 D3/2 D/ | D2 z2 | %16
w: Gud kvelv- de|luf- ti|blaa y- ver|tuf- ti|lyf- te vaar|hejm- hug og|stun- ding mot|hav,|
 G2 G3/2 F/ | E2 G3/2 G/ | F2 G3/2 F/ | E2 z2 |] %20
w: lyf- te vaar|hejm- hug og|stun- ding mot|hav.|
V:3
 C2 E3/2 F/ | G2 G2 | E2 G3/2 A/ | B2 B2 | G2 d3/2 c/ | c2 B3/2 d/ | e2 d3/2 c/ | B2 z2 | %8
w: 1.Fe- der- ne|bygg- de;|sø- ner- ne|trygg- de|hei- men, som|o- del til|æt- ter- ne|gav.|
 B2 B3/2 B/ | c2 d2 | B2 =B3/2 c/ | d2 e2 | f2 d3/2 c/ | B2 A3/2 G/ | c2 A3/2 c/ | =B2 z2 | %16
w: Gud kvelv- de|luf- ti|blaa y- ver|tuf- ti|lyf- te vaar|hejm- hug og|stun- ding mot|hav,|
 c2 c3/2 c/ | c2 c3/2 c/ | c2 =B3/2 B/ | c2 z2 |] %20
w: lyf- te vaar|hejm- hug og|stun- ding mot|hav.|
V:4
 C,2 E,3/2 F,/ | G,2 G,2 | E,2 G,3/2 A,/ | B,2 B,2 | G,2 F,3/2 E,/ | D,2 E,3/2 D,/ | %6
w: 1.Fe- der- ne|bygg- de;|sø- ner- ne|trygg- de|hei- men, som|o- del til|
 C,2 D,3/2 D,/ | G,2 z2 | F,2 B,3/2 B,/ | A,2 A,2 | G,2 F,3/2 E,/ | D,2 C,2 | D,2 B,,3/2 D,/ | %13
w: æt- ter- ne|gav.|Gud kvelv- de|luf- ti|blaa y- ver|tuf- ti|lyf- te vaar|
 E,2 F,3/2 G,/ | A,2 F,3/2 A,/ | G,2 z2 | E,2 E,3/2 F,/ | G,2 E,3/2 C,/ | G,,2 G,3/2 G,/ | %19
w: hejm- hug og|stun- ding mot|hav,|lyf- te vaar|hejm- hug og|stun- ding mot|
 C,2 z2 |] %20
w: hav.|

